dist/icons/logo.svg

<svg width="120" height="14" viewBox="0 0 120 14" fill="none" xmlns="http://www.w3.org/2000/svg">
<g id="logo">
<g id="XMLID_234_">
<path id="XMLID_243_" d="M9.42307 1.52885V8.16346C9.42307 10.375 8.46154 11.2885 6.15384 11.2885C3.84615 11.2885 2.88461 10.375 2.88461 8.16346V1.24039H0.673075C0.528844 1.24039 0.384613 1.38462 0.384613 1.52885V8.25962C0.384613 11.9615 2.74038 13.2596 6.15384 13.2596C9.56731 13.2596 11.9231 11.9615 11.9231 8.25962V1.24039H9.71154C9.56731 1.24039 9.42307 1.33654 9.42307 1.52885V1.52885Z" fill="black"/>
<path id="XMLID_242_" d="M41.5865 3.16346C41.7789 3.16346 41.875 3.11539 41.9231 2.97116L42.5481 1.38462C42.5962 1.28846 42.5481 1.24039 42.4519 1.24039H33.5096C32.6923 1.24039 32.3558 1.48077 32.3558 2.05769V12.3462C32.3558 12.8269 32.5962 13.0673 33.2212 13.0673H41.5385C41.7308 13.0673 41.8269 13.0192 41.875 12.875L42.5 11.2885C42.5481 11.1923 42.5 11.1442 42.4039 11.1442H34.8077V9.02885C34.8077 8.30769 35.1923 7.97116 36.2981 7.97116H39.6154C39.8077 7.97116 39.9039 7.92308 39.9519 7.77885L40.5769 6.24039C40.625 6.14423 40.5769 6.09616 40.4808 6.09616H34.8558V3.11539H41.5865V3.16346Z" fill="black"/>
<path id="XMLID_238_" fill-rule="evenodd" clip-rule="evenodd" d="M25.8654 6.81731C26.8269 6.28846 27.2115 5.375 27.2115 4.22116C27.2115 1.625 25.0961 1.24039 22.8846 1.24039H17.8365C17.0192 1.24039 16.6827 1.48077 16.6827 2.05769V12.3462C16.6827 12.8269 16.9231 13.0673 17.5481 13.0673H23.75C26.1058 13.0673 27.7404 12.1538 27.7404 9.79808C27.7884 8.35577 27.2115 7.15385 25.8654 6.81731ZM19.1827 3.11539H23.0769C24.375 3.11539 24.7596 3.59616 24.7596 4.60577C24.7596 5.61539 24.375 6.09616 23.0769 6.09616H19.1827V3.11539ZM19.1827 11.1442H23.5577C24.9519 11.1442 25.3365 10.6635 25.3365 9.5577C25.3365 8.45193 24.9519 7.92308 23.5577 7.92308H20.6731C19.5673 7.92308 19.1827 8.25962 19.1827 8.98077V11.1442Z" fill="black"/>
<path id="XMLID_235_" fill-rule="evenodd" clip-rule="evenodd" d="M55.3846 8.30769L58.0288 12.875C58.0769 12.9231 58.0769 13.0673 57.9808 13.0673H55.7212C55.5288 13.0673 55.4808 13.0192 55.3846 12.875L52.9808 8.54808H50.8173C49.7115 8.54808 49.3269 8.88462 49.3269 9.60577V13.0673H47.1635C47.0192 13.0673 46.875 12.9231 46.875 12.7788V2.05769C46.875 1.48077 47.2115 1.24039 48.0288 1.24039H53.0769C56.0096 1.24039 57.7885 2.00962 57.7885 4.89423C57.7885 7.10577 56.6827 7.97116 55.3846 8.30769ZM49.2788 6.72116H53.4135C54.9519 6.72116 55.2885 6.14423 55.2885 4.89423C55.2885 3.69231 54.9519 3.11539 53.4135 3.11539H49.2788V6.72116Z" fill="black"/>
</g>
<g id="XMLID_224_">
<path id="XMLID_232_" d="M76.4423 12.0096L76.3942 13.0673H67.6442V1.24039H76.0577L76.1058 2.34616H68.8461V6.43269H75.0961V7.39423H68.8461V12.0096H76.4423V12.0096Z" fill="#57AD56" stroke="#57AD56" stroke-width="0.25"/>
<g id="XMLID_229_">
<path fill-rule="evenodd" clip-rule="evenodd" d="M83.7019 9.99039H90.6731L92.0192 13.0673H93.3654L87.9327 1.24039H86.5384L81.0577 13.0673H82.3558L83.7019 9.99039ZM84.1346 8.98077L86.6827 3.25962L87.1634 2.05769H87.2115L87.6923 3.25962L90.1923 8.98077H84.1346Z" fill="#57AD56"/>
<path d="M90.6731 9.99039L90.7876 9.94028L90.7548 9.86539H90.6731V9.99039ZM83.7019 9.99039V9.86539H83.6202L83.5874 9.94028L83.7019 9.99039ZM92.0192 13.0673L91.9047 13.1174L91.9375 13.1923H92.0192V13.0673ZM93.3654 13.0673V13.1923H93.5603L93.479 13.0151L93.3654 13.0673ZM87.9327 1.24039L88.0463 1.18821L88.0128 1.11539H87.9327V1.24039ZM86.5384 1.24039V1.11539H86.4586L86.425 1.18783L86.5384 1.24039ZM81.0577 13.0673L80.9443 13.0148L80.862 13.1923H81.0577V13.0673ZM82.3558 13.0673V13.1923H82.4375L82.4703 13.1174L82.3558 13.0673ZM86.6827 3.25962L86.7969 3.31051L86.7987 3.30604L86.6827 3.25962ZM84.1346 8.98077L84.0204 8.92992L83.9421 9.10577H84.1346V8.98077ZM87.1634 2.05769V1.93269H87.0788L87.0474 2.01127L87.1634 2.05769ZM87.2115 2.05769L87.3276 2.01127L87.2962 1.93269H87.2115V2.05769ZM87.6923 3.25962L87.5762 3.30606L87.5778 3.30967L87.6923 3.25962ZM90.1923 8.98077V9.10577H90.3833L90.3068 8.93072L90.1923 8.98077ZM90.6731 9.86539H83.7019V10.1154H90.6731V9.86539ZM92.1337 13.0172L90.7876 9.94028L90.5585 10.0405L91.9047 13.1174L92.1337 13.0172ZM93.3654 12.9423H92.0192V13.1923H93.3654V12.9423ZM87.8191 1.29256L93.2518 13.1195L93.479 13.0151L88.0463 1.18821L87.8191 1.29256ZM86.5384 1.36539H87.9327V1.11539H86.5384V1.36539ZM81.1711 13.1199L86.6519 1.29294L86.425 1.18783L80.9443 13.0148L81.1711 13.1199ZM82.3558 12.9423H81.0577V13.1923H82.3558V12.9423ZM83.5874 9.94028L82.2412 13.0172L82.4703 13.1174L83.8164 10.0405L83.5874 9.94028ZM86.5685 3.20876L84.0204 8.92992L84.2488 9.03163L86.7969 3.31047L86.5685 3.20876ZM87.0474 2.01127L86.5666 3.21319L86.7987 3.30604L87.2795 2.10412L87.0474 2.01127ZM87.2115 1.93269H87.1634V2.18269H87.2115V1.93269ZM87.8084 3.21319L87.3276 2.01127L87.0955 2.10412L87.5762 3.30604L87.8084 3.21319ZM90.3068 8.93072L87.8068 3.20957L87.5778 3.30967L90.0778 9.03082L90.3068 8.93072ZM84.1346 9.10577H90.1923V8.85577H84.1346V9.10577Z" fill="#57AD56"/>
</g>
<path id="XMLID_227_" d="M102.019 2.34616V13.0673H100.817V2.34616H96.3942L96.4423 1.24039H106.49V2.34616H102.019V2.34616Z" fill="#57AD56" stroke="#57AD56" stroke-width="0.25"/>
<path id="XMLID_225_" d="M115.048 13.3077C113.413 13.3077 112.115 12.9231 111.058 12.2981L111.25 11.2404C112.356 11.8654 113.606 12.25 115.096 12.25C117.308 12.25 118.462 11.2404 118.462 9.79808C118.462 6.67308 111.25 8.30769 111.25 4.26923C111.25 2.53846 112.548 1 115.577 1C116.971 1 118.221 1.24038 119.231 1.72115L119.038 2.73077C117.933 2.29808 116.875 2.05769 115.625 2.05769C113.269 2.05769 112.404 3.11538 112.404 4.17308C112.404 7.15385 119.615 5.47115 119.615 9.70192C119.567 11.8173 118.029 13.3077 115.048 13.3077V13.3077Z" fill="#57AD56" stroke="#57AD56" stroke-width="0.25"/>
</g>
</g>
</svg>

<svg width="120" height="14" fill="none" xmlns="http://www.w3.org/2000/svg"><g fill="#000"><path d="M9.423 1.529v6.634c0 2.212-.961 3.126-3.27 3.126-2.307 0-3.268-.914-3.268-3.126V1.24H.673a.31.31 0 0 0-.288.289v6.73c0 3.702 2.355 5 5.769 5 3.413 0 5.77-1.298 5.77-5V1.24H9.711c-.145 0-.289.097-.289.289ZM41.587 3.163c.192 0 .288-.048.336-.192l.625-1.586c.048-.097 0-.145-.096-.145H33.51c-.818 0-1.154.24-1.154.818v10.288c0 .48.24.721.865.721h8.318c.192 0 .288-.048.336-.192l.625-1.586c.048-.097 0-.145-.096-.145h-7.596V9.03c0-.721.384-1.058 1.49-1.058h3.317c.193 0 .289-.048.337-.192l.625-1.539c.048-.096 0-.144-.096-.144h-5.625v-2.98h6.73v.047Z"/><path fill-rule="evenodd" clip-rule="evenodd" d="M25.865 6.817c.962-.529 1.347-1.442 1.347-2.596 0-2.596-2.116-2.98-4.327-2.98h-5.049c-.817 0-1.153.24-1.153.817v10.288c0 .48.24.721.865.721h6.202c2.356 0 3.99-.913 3.99-3.269.048-1.442-.528-2.644-1.875-2.98Zm-6.682-3.702h3.894c1.298 0 1.683.481 1.683 1.49 0 1.01-.385 1.491-1.683 1.491h-3.894v-2.98Zm0 8.03h4.375c1.394 0 1.779-.481 1.779-1.587 0-1.106-.385-1.635-1.78-1.635h-2.884c-1.106 0-1.49.337-1.49 1.058v2.163ZM55.385 8.308l2.644 4.567c.048.048.048.192-.048.192h-2.26c-.192 0-.24-.048-.336-.192L52.98 8.548h-2.164c-1.105 0-1.49.337-1.49 1.058v3.461h-2.163a.31.31 0 0 1-.289-.288V2.058c0-.577.337-.818 1.154-.818h5.048c2.933 0 4.712.77 4.712 3.654 0 2.212-1.106 3.077-2.404 3.414ZM49.279 6.72h4.134c1.539 0 1.876-.577 1.876-1.827 0-1.202-.337-1.779-1.876-1.779H49.28v3.606Z"/></g><g fill="#57AD56"><path d="m76.442 12.01-.048 1.057h-8.75V1.24h8.414l.048 1.106h-7.26v4.087h6.25v.961h-6.25v4.616h7.596Z" stroke="#57AD56" stroke-width=".25"/><path fill-rule="evenodd" clip-rule="evenodd" d="M83.702 9.99h6.971l1.346 3.077h1.346L87.933 1.24h-1.395l-5.48 11.827h1.298l1.346-3.077Zm.433-1.01 2.548-5.72.48-1.202h.049l.48 1.202 2.5 5.72h-6.057Z"/><path d="m90.673 9.99.115-.05-.033-.075h-.082v.125Zm-6.971 0v-.125h-.082l-.033.075.115.05Zm8.317 3.077-.114.05.032.075h.082v-.125Zm1.346 0v.125h.195l-.081-.177-.114.052ZM87.933 1.24l.113-.052-.033-.073h-.08v.125Zm-1.395 0v-.125h-.08l-.033.073.113.052Zm-5.48 11.827-.114-.052-.082.177h.196v-.125Zm1.298 0v.125h.082l.032-.075-.114-.05Zm4.327-9.807.114.05.002-.004-.116-.046Zm-2.548 5.72-.115-.05-.078.176h.193V8.98Zm3.028-6.922v-.125h-.084l-.032.078.116.047Zm.049 0 .116-.047-.032-.078h-.085v.125Zm.48 1.202-.116.046.002.004.114-.05Zm2.5 5.72v.126h.191l-.076-.175-.115.05Zm.481.885h-6.971v.25h6.971v-.25Zm1.46 3.152L90.789 9.94l-.23.1 1.347 3.077.229-.1Zm1.232-.075H92.02v.25h1.346v-.25ZM87.82 1.292l5.433 11.828.227-.105-5.433-11.827-.227.105Zm-1.28.073h1.394v-.25h-1.395v.25ZM81.17 13.12l5.48-11.827-.226-.105-5.48 11.827.226.105Zm1.185-.178h-1.298v.25h1.298v-.25Zm1.231-3.002-1.346 3.077.23.1 1.345-3.077-.229-.1Zm2.981-6.731-2.548 5.72.229.103 2.548-5.722-.228-.101Zm.48-1.198-.481 1.202.232.093.48-1.202-.232-.093Zm.163-.078h-.048v.25h.049v-.25Zm.597 1.28-.48-1.202-.233.093.481 1.202.232-.093Zm2.499 5.718-2.5-5.721-.23.1 2.5 5.72.23-.1Zm-6.172.175h6.057v-.25h-6.057v.25Z"/><path d="M102.019 2.346v10.721h-1.202V2.347h-4.423l.048-1.107h10.048v1.106h-4.471ZM115.048 13.308c-1.635 0-2.933-.385-3.99-1.01l.192-1.058a7.627 7.627 0 0 0 3.846 1.01c2.212 0 3.366-1.01 3.366-2.452 0-3.125-7.212-1.49-7.212-5.529 0-1.73 1.298-3.269 4.327-3.269 1.394 0 2.644.24 3.654.721l-.193 1.01c-1.105-.433-2.163-.673-3.413-.673-2.356 0-3.221 1.057-3.221 2.115 0 2.98 7.211 1.298 7.211 5.529-.048 2.115-1.586 3.606-4.567 3.606Z" stroke="#57AD56" stroke-width=".25"/></g></svg>
